X:3
T:German Beau
Z: id:dc-miscellaneous-10
M:C
L:1/8
K:D Major
A|d4 A2d2|e3c A2f2|g2f2 e2d2|cdec ABcA|!
d4 A2d2|e3c A2g2|fafd egec|[1 d4 d3:|[2 d4 d3|]!
A|defg a4|defg a4|b3a b2c'2|d'4 c'2d'2|!
a4 g2e2|a4 f2d2|g2f2 e2d2|cdec ABcA|!
d4 A2d2|e3c A2g2|fafd egec|d4 d3:|!

